src/general/components/img/addressbookwhite.svg

<svg height="50" viewBox="0 0 50 50" width="50" xmlns="http://www.w3.org/2000/svg"><g fill="#fff" stroke="#fff" stroke-width=".4"><path d="m8.21 50.045h38.016c.702 0 1.273-.571 1.273-1.272v-47.545c0-.686-.571-1.257-1.273-1.257h-38.016c-.701 0-1.272.571-1.272 1.257v5.074h-3.166c-.701 0-1.272.572-1.272 1.272 0 .686.571 1.257 1.272 1.257h3.166v4.438h-3.166c-.702 0-1.272.571-1.272 1.272s.571 1.273 1.272 1.273h3.166v4.438h-3.166c-.702 0-1.272.571-1.272 1.257 0 .701.571 1.272 1.272 1.272h3.166v4.426h-3.166c-.702 0-1.272.569-1.272 1.269 0 .702.571 1.273 1.272 1.273h3.166v4.437h-3.166c-.702 0-1.272.571-1.272 1.273 0 .701.571 1.272 1.272 1.272h3.166v4.438h-3.166c-.702 0-1.272.57-1.272 1.271 0 .67.571 1.24 1.272 1.24h3.166v5.091c0 .703.571 1.274 1.272 1.274zm1.257-6.363h4.438c.702 0 1.273-.57 1.273-1.24 0-.701-.571-1.271-1.273-1.271h-4.438v-4.438h4.438c.702 0 1.273-.571 1.273-1.272 0-.702-.571-1.273-1.273-1.273h-4.438v-4.437h4.438c.702 0 1.273-.571 1.273-1.273 0-.699-.571-1.269-1.273-1.269h-4.438v-4.426h4.438c.702 0 1.273-.571 1.273-1.272 0-.686-.571-1.257-1.273-1.257h-4.438v-4.438h4.438c.702 0 1.273-.571 1.273-1.273s-.571-1.272-1.273-1.272h-4.438v-4.44h4.438c.702 0 1.273-.571 1.273-1.257 0-.701-.571-1.272-1.273-1.272h-4.438v-3.801h35.488v44.998h-35.488z"/><path d="m37.352 6.613h-16.48c-.686 0-1.257.571-1.257 1.271v11.406c0 .702.571 1.273 1.257 1.273h16.479c.7 0 1.271-.571 1.271-1.273v-11.405c.001-.7-.57-1.272-1.27-1.272zm-1.273 11.42h-13.934v-8.875h13.934z"/><path d="m37.352 23.107h-16.48c-.686 0-1.257.571-1.257 1.257 0 .701.571 1.271 1.257 1.271h16.479c.7 0 1.271-.571 1.271-1.271.001-.685-.57-1.257-1.27-1.257z"/></g></svg>

<?xml version="1.0" encoding="UTF-8"?>
<svg width="50px" height="50px" viewBox="0 0 50 50" version="1.1" xmlns="http://www.w3.org/2000/svg" xmlns:xlink="http://www.w3.org/1999/xlink">
    <!-- Generator: Sketch 48.2 (47327) - http://www.bohemiancoding.com/sketch -->
    <title>Artboard 5</title>
    <desc>Created with Sketch.</desc>
    <defs></defs>
    <g id="Symbols" stroke="none" stroke-width="1" fill="none" fill-rule="evenodd">
        <g id="Artboard-5" fill="#FFFFFF" fill-rule="nonzero" stroke="#FFFFFF" stroke-width="0.4">
            <path d="M8.21,50.045 L46.226,50.045 C46.928,50.045 47.499,49.474 47.499,48.773 L47.499,1.228 C47.499,0.542 46.928,-0.029 46.226,-0.029 L8.21,-0.029 C7.509,-0.029 6.938,0.542 6.938,1.228 L6.938,6.302 L3.772,6.302 C3.071,6.302 2.5,6.874 2.5,7.574 C2.5,8.26 3.071,8.831 3.772,8.831 L6.938,8.831 L6.938,13.269 L3.772,13.269 C3.07,13.269 2.5,13.84 2.5,14.541 C2.5,15.242 3.071,15.814 3.772,15.814 L6.938,15.814 L6.938,20.252 L3.772,20.252 C3.07,20.252 2.5,20.823 2.5,21.509 C2.5,22.21 3.071,22.781 3.772,22.781 L6.938,22.781 L6.938,27.207 L3.772,27.207 C3.07,27.207 2.5,27.776 2.5,28.476 C2.5,29.178 3.071,29.749 3.772,29.749 L6.938,29.749 L6.938,34.186 L3.772,34.186 C3.07,34.186 2.5,34.757 2.5,35.459 C2.5,36.16 3.071,36.731 3.772,36.731 L6.938,36.731 L6.938,41.169 L3.772,41.169 C3.07,41.169 2.5,41.739 2.5,42.44 C2.5,43.11 3.071,43.68 3.772,43.68 L6.938,43.68 L6.938,48.771 C6.938,49.474 7.509,50.045 8.21,50.045 Z M9.467,43.682 L13.905,43.682 C14.607,43.682 15.178,43.112 15.178,42.442 C15.178,41.741 14.607,41.171 13.905,41.171 L9.467,41.171 L9.467,36.733 L13.905,36.733 C14.607,36.733 15.178,36.162 15.178,35.461 C15.178,34.759 14.607,34.188 13.905,34.188 L9.467,34.188 L9.467,29.751 L13.905,29.751 C14.607,29.751 15.178,29.18 15.178,28.478 C15.178,27.779 14.607,27.209 13.905,27.209 L9.467,27.209 L9.467,22.783 L13.905,22.783 C14.607,22.783 15.178,22.212 15.178,21.511 C15.178,20.825 14.607,20.254 13.905,20.254 L9.467,20.254 L9.467,15.816 L13.905,15.816 C14.607,15.816 15.178,15.245 15.178,14.543 C15.178,13.841 14.607,13.271 13.905,13.271 L9.467,13.271 L9.467,8.831 L13.905,8.831 C14.607,8.831 15.178,8.26 15.178,7.574 C15.178,6.873 14.607,6.302 13.905,6.302 L9.467,6.302 L9.467,2.501 L44.955,2.501 L44.955,47.499 L9.467,47.499 L9.467,43.682 Z" id="Shape"></path>
            <path d="M37.352,6.613 L20.872,6.613 C20.186,6.613 19.615,7.184 19.615,7.884 L19.615,19.29 C19.615,19.992 20.186,20.563 20.872,20.563 L37.351,20.563 C38.051,20.563 38.622,19.992 38.622,19.29 L38.622,7.885 C38.623,7.185 38.052,6.613 37.352,6.613 Z M36.079,18.033 L22.145,18.033 L22.145,9.158 L36.079,9.158 L36.079,18.033 Z" id="Shape_1_"></path>
            <path d="M37.352,23.107 L20.872,23.107 C20.186,23.107 19.615,23.678 19.615,24.364 C19.615,25.065 20.186,25.635 20.872,25.635 L37.351,25.635 C38.051,25.635 38.622,25.064 38.622,24.364 C38.623,23.679 38.052,23.107 37.352,23.107 Z" id="Shape_2_"></path>
        </g>
    </g>
</svg>
